X: 35804
T: Salsbury Girls
R: reel
M: 4/4
K: Amajor
K: F#min
|:F2FE FEFG|A2A2 G2c2|cBAG A~F3|cBA2 G3G|
BABc B2c2|dBG2 cAGA|GABc d2c2|1 BAGA F4:|2 BAGA F3e||
|:f~c3 fcfg|a2c2 d3B|c~F3 B2BA|BcdB c=f^fg|
abga f~c3|d2B2 cAGA|D2FG ABGB|1 cBAG F3e:|2 cBAG F4||

